<?xml version="1.0" encoding="UTF-8"?>
<map version="1.10" tiledversion="1.12.2" orientation="orthogonal" renderorder="right-down" width="46" height="34" tilewidth="32" tileheight="32" infinite="0" nextlayerid="6" nextobjectid="56">
 <properties>
  <property name="defaultSpawn" value="secret-path-spawn"/>
 </properties>
 <layer id="1" name="Tile Layer 1" width="46" height="34">
  <data encoding="csv">
0,0,0,0,0,0,0,0,0,0,0,0,0,0,0,0,0,0,0,0,0,0,0,0,0,0,0,0,0,0,0,0,0,0,0,0,0,0,0,0,0,0,0,0,0,0,
0,0,0,0,0,0,0,0,0,0,0,0,0,0,0,0,0,0,0,0,0,0,0,0,0,0,0,0,0,0,0,0,0,0,0,0,0,0,0,0,0,0,0,0,0,0,
0,0,0,0,0,0,0,0,0,0,0,0,0,0,0,0,0,0,0,0,0,0,0,0,0,0,0,0,0,0,0,0,0,0,0,0,0,0,0,0,0,0,0,0,0,0,
0,0,0,0,0,0,0,0,0,0,0,0,0,0,0,0,0,0,0,0,0,0,0,0,0,0,0,0,0,0,0,0,0,0,0,0,0,0,0,0,0,0,0,0,0,0,
0,0,0,0,0,0,0,0,0,0,0,0,0,0,0,0,0,0,0,0,0,0,0,0,0,0,0,0,0,0,0,0,0,0,0,0,0,0,0,0,0,0,0,0,0,0,
0,0,0,0,0,0,0,0,0,0,0,0,0,0,0,0,0,0,0,0,0,0,0,0,0,0,0,0,0,0,0,0,0,0,0,0,0,0,0,0,0,0,0,0,0,0,
0,0,0,0,0,0,0,0,0,0,0,0,0,0,0,0,0,0,0,0,0,0,0,0,0,0,0,0,0,0,0,0,0,0,0,0,0,0,0,0,0,0,0,0,0,0,
0,0,0,0,0,0,0,0,0,0,0,0,0,0,0,0,0,0,0,0,0,0,0,0,0,0,0,0,0,0,0,0,0,0,0,0,0,0,0,0,0,0,0,0,0,0,
0,0,0,0,0,0,0,0,0,0,0,0,0,0,0,0,0,0,0,0,0,0,0,0,0,0,0,0,0,0,0,0,0,0,0,0,0,0,0,0,0,0,0,0,0,0,
0,0,0,0,0,0,0,0,0,0,0,0,0,0,0,0,0,0,0,0,0,0,0,0,0,0,0,0,0,0,0,0,0,0,0,0,0,0,0,0,0,0,0,0,0,0,
0,0,0,0,0,0,0,0,0,0,0,0,0,0,0,0,0,0,0,0,0,0,0,0,0,0,0,0,0,0,0,0,0,0,0,0,0,0,0,0,0,0,0,0,0,0,
0,0,0,0,0,0,0,0,0,0,0,0,0,0,0,0,0,0,0,0,0,0,0,0,0,0,0,0,0,0,0,0,0,0,0,0,0,0,0,0,0,0,0,0,0,0,
0,0,0,0,0,0,0,0,0,0,0,0,0,0,0,0,0,0,0,0,0,0,0,0,0,0,0,0,0,0,0,0,0,0,0,0,0,0,0,0,0,0,0,0,0,0,
0,0,0,0,0,0,0,0,0,0,0,0,0,0,0,0,0,0,0,0,0,0,0,0,0,0,0,0,0,0,0,0,0,0,0,0,0,0,0,0,0,0,0,0,0,0,
0,0,0,0,0,0,0,0,0,0,0,0,0,0,0,0,0,0,0,0,0,0,0,0,0,0,0,0,0,0,0,0,0,0,0,0,0,0,0,0,0,0,0,0,0,0,
0,0,0,0,0,0,0,0,0,0,0,0,0,0,0,0,0,0,0,0,0,0,0,0,0,0,0,0,0,0,0,0,0,0,0,0,0,0,0,0,0,0,0,0,0,0,
0,0,0,0,0,0,0,0,0,0,0,0,0,0,0,0,0,0,0,0,0,0,0,0,0,0,0,0,0,0,0,0,0,0,0,0,0,0,0,0,0,0,0,0,0,0,
0,0,0,0,0,0,0,0,0,0,0,0,0,0,0,0,0,0,0,0,0,0,0,0,0,0,0,0,0,0,0,0,0,0,0,0,0,0,0,0,0,0,0,0,0,0,
0,0,0,0,0,0,0,0,0,0,0,0,0,0,0,0,0,0,0,0,0,0,0,0,0,0,0,0,0,0,0,0,0,0,0,0,0,0,0,0,0,0,0,0,0,0,
0,0,0,0,0,0,0,0,0,0,0,0,0,0,0,0,0,0,0,0,0,0,0,0,0,0,0,0,0,0,0,0,0,0,0,0,0,0,0,0,0,0,0,0,0,0,
0,0,0,0,0,0,0,0,0,0,0,0,0,0,0,0,0,0,0,0,0,0,0,0,0,0,0,0,0,0,0,0,0,0,0,0,0,0,0,0,0,0,0,0,0,0,
0,0,0,0,0,0,0,0,0,0,0,0,0,0,0,0,0,0,0,0,0,0,0,0,0,0,0,0,0,0,0,0,0,0,0,0,0,0,0,0,0,0,0,0,0,0,
0,0,0,0,0,0,0,0,0,0,0,0,0,0,0,0,0,0,0,0,0,0,0,0,0,0,0,0,0,0,0,0,0,0,0,0,0,0,0,0,0,0,0,0,0,0,
0,0,0,0,0,0,0,0,0,0,0,0,0,0,0,0,0,0,0,0,0,0,0,0,0,0,0,0,0,0,0,0,0,0,0,0,0,0,0,0,0,0,0,0,0,0,
0,0,0,0,0,0,0,0,0,0,0,0,0,0,0,0,0,0,0,0,0,0,0,0,0,0,0,0,0,0,0,0,0,0,0,0,0,0,0,0,0,0,0,0,0,0,
0,0,0,0,0,0,0,0,0,0,0,0,0,0,0,0,0,0,0,0,0,0,0,0,0,0,0,0,0,0,0,0,0,0,0,0,0,0,0,0,0,0,0,0,0,0,
0,0,0,0,0,0,0,0,0,0,0,0,0,0,0,0,0,0,0,0,0,0,0,0,0,0,0,0,0,0,0,0,0,0,0,0,0,0,0,0,0,0,0,0,0,0,
0,0,0,0,0,0,0,0,0,0,0,0,0,0,0,0,0,0,0,0,0,0,0,0,0,0,0,0,0,0,0,0,0,0,0,0,0,0,0,0,0,0,0,0,0,0,
0,0,0,0,0,0,0,0,0,0,0,0,0,0,0,0,0,0,0,0,0,0,0,0,0,0,0,0,0,0,0,0,0,0,0,0,0,0,0,0,0,0,0,0,0,0,
0,0,0,0,0,0,0,0,0,0,0,0,0,0,0,0,0,0,0,0,0,0,0,0,0,0,0,0,0,0,0,0,0,0,0,0,0,0,0,0,0,0,0,0,0,0,
0,0,0,0,0,0,0,0,0,0,0,0,0,0,0,0,0,0,0,0,0,0,0,0,0,0,0,0,0,0,0,0,0,0,0,0,0,0,0,0,0,0,0,0,0,0,
0,0,0,0,0,0,0,0,0,0,0,0,0,0,0,0,0,0,0,0,0,0,0,0,0,0,0,0,0,0,0,0,0,0,0,0,0,0,0,0,0,0,0,0,0,0,
0,0,0,0,0,0,0,0,0,0,0,0,0,0,0,0,0,0,0,0,0,0,0,0,0,0,0,0,0,0,0,0,0,0,0,0,0,0,0,0,0,0,0,0,0,0,
0,0,0,0,0,0,0,0,0,0,0,0,0,0,0,0,0,0,0,0,0,0,0,0,0,0,0,0,0,0,0,0,0,0,0,0,0,0,0,0,0,0,0,0,0,0
</data>
 </layer>
 <imagelayer id="2" name="secret-path">
  <image source="secret-path.png" width="1460" height="1078"/>
 </imagelayer>
 <objectgroup id="3" name="Notes">
  <object id="1" name="secret-path-spawn" x="353.333" y="174.667">
   <properties>
    <property name="details" value="connection from office2"/>
   </properties>
   <point/>
  </object>
  <object id="2" name="arena-spawn" x="1316" y="937.333">
   <properties>
    <property name="details" value="spawn connection to arena"/>
   </properties>
   <point/>
  </object>
 </objectgroup>
 <objectgroup id="4" name="Collision">
  <object id="3" x="1106" y="969.5" width="300.5" height="7.5"/>
  <object id="4" x="1390" y="831" width="16" height="136.5"/>
  <object id="5" x="1229" y="904.5" width="158.5" height="21.5"/>
  <object id="6" x="1195" y="860.5" width="32.5" height="42.5"/>
  <object id="7" x="805.5" y="843" width="387.5" height="18.5"/>
  <object id="8" x="867.5" y="875" width="23" height="56.5"/>
  <object id="9" x="827" y="863.5" width="40" height="31.5"/>
  <object id="10" x="894" y="863" width="49" height="48.5"/>
  <object id="11" x="944" y="859.5" width="248.5" height="17"/>
  <object id="12" x="718.667" y="967.333" width="386.667" height="8"/>
  <object id="13" x="586" y="937.5" width="134.5" height="26.5"/>
  <object id="14" x="594.5" y="737.5" width="35" height="196.5"/>
  <object id="15" x="630" y="595" width="16.5" height="197"/>
  <object id="16" x="718" y="713" width="12.5" height="135.5"/>
  <object id="17" x="726" y="839.5" width="77.5" height="23.5"/>
  <object id="18" x="732.5" y="718" width="399.5" height="8.5"/>
  <object id="21" x="1113" y="663.5" width="117.5" height="42.5"/>
  <object id="22" x="1155.5" y="645" width="70.5" height="16"/>
  <object id="23" x="1225.5" y="572" width="8.5" height="69.5"/>
  <object id="24" x="883" y="574.5" width="341.5" height="7"/>
  <object id="25" x="884.5" y="581.5" width="232.5" height="36.5"/>
  <object id="26" x="752.5" y="581" width="98.5" height="34.5"/>
  <object id="27" x="848.5" y="575" width="38.5" height="6.5"/>
  <object id="28" x="755" y="551.5" width="13" height="27"/>
  <object id="29" x="766.5" y="507.5" width="53.5" height="42"/>
  <object id="30" x="817" y="417" width="67.5" height="84.5"/>
  <object id="31" x="678" y="405" width="136.5" height="31.5"/>
  <object id="32" x="669" y="438" width="9" height="75.5"/>
  <object id="33" x="504.5" y="483.5" width="163" height="29"/>
  <object id="34" x="506" y="420.5" width="14" height="58.5"/>
  <object id="35" x="429.5" y="385" width="75" height="47.5"/>
  <object id="36" x="430" y="164" width="12.5" height="218"/>
  <object id="37" x="404.5" y="66.5" width="21.5" height="105.5"/>
  <object id="38" x="328" y="87.5" width="51.5" height="50.5"/>
  <object id="39" x="280.5" y="62.5" width="20.5" height="118.5"/>
  <object id="40" x="303.5" y="88" width="101" height="22"/>
  <object id="41" x="264.5" y="182.5" width="14.5" height="219"/>
  <object id="42" x="282.5" y="267.5" width="23.5" height="30.5"/>
  <object id="43" x="236.5" y="402" width="40.5" height="104.5"/>
  <object id="44" x="123" y="501.5" width="109" height="6.5"/>
  <object id="45" x="110.5" y="509.5" width="25.5" height="36.5"/>
  <object id="46" x="137.5" y="542.5" width="305.5" height="10.5"/>
  <object id="47" x="435.5" y="544.5" width="12.5" height="44"/>
  <object id="48" x="449" y="584" width="195" height="8.5"/>
  <object id="50" x="894.667" y="663.333" width="24" height="13.3333"/>
  <object id="51" x="663.333" y="528" width="21.3333" height="11.3333"/>
 <object id="52" x="482" y="472.667" width="18" height="12"/>
 </objectgroup>
 <objectgroup id="5" name="Spawns">
  <object id="53" name="secret-path-spawn" x="353.333" y="174.667">
   <properties>
    <property name="interactionRadius" type="float" value="40"/>
    <property name="label" value="Office"/>
    <property name="targetMap" value="office2"/>
    <property name="targetSpawn" value="office2-trapdoor-return"/>
    <property name="transition" type="bool" value="true"/>
   </properties>
   <point/>
  </object>
  <object id="54" name="arena-entrance" x="1316" y="937.333">
   <properties>
    <property name="interactionRadius" type="float" value="40"/>
    <property name="label" value="Arena"/>
    <property name="targetMap" value="arena"/>
    <property name="targetSpawn" value="arena-spawn"/>
    <property name="transition" type="bool" value="true"/>
   </properties>
   <point/>
  </object>
  <object id="55" name="arena-return" x="1316" y="961.333">
   <point/>
  </object>
 </objectgroup>
</map>
